X:1
T:Trauer und Trost, Op.3
T:An den Traum
T:4. An dem Traum
T:Peter Cornelius
T:Trauer und Trost, Op.3
T:Peter Cornelius
T:Creative Commons copyright waiver (CC0 1.0 Universal) 
T:Creative Commons copyright waiver (CC0 1.0 Universal) 
C:Peter Cornelius
Z:Peter Cornelius
Z:Creative Commons copyright waiver (CC0 1.0 Universal)
Z:
L:1/8
M:3/4
K:D
V:1 treble nm="Voice" snm="Vo."
V:1
 z6 | G>F FE DE | D2 C2 z2 | G4 z2 | C2 D2 E2 | F>D B,4 | z2 z2 F>F | A2 G2 z2 | ^D>^G A2 G2 | %9
w: |Öff- ne mir die gold- ne|Pfor- te,|Traum,|zu dei- nem|Wun- der- hain,|was mir|blüh- te|und ver- dorr- te|
 z2 =G2 =G2 | =F3 D DE | =F4 z2 | E>E ^G>G c>c | A2 F2 ^GA | B3 E E>^D | F4 z2 | =G>=G B>B d>d | %17
w: lass mir|blü- hend neu ge-|deih'n|Zei ge mir die heil'- gen|Or- te mei- ner|Won- ne, mei ner|Pein,|lass mich laus- chen hol- dem|
 d4 B2 | A>^G G=F EF | E6 | ^E>F F2 =E2 | D4 E2 | D2 C2 z2 | z2 G4 | z2 =C2 DE | F>G F4 | z6 | %27
w: Wor- te,|Lie- bes- strah- len sau- gen|ein.|02ff- ne mir die|gold- ne|Pfor- te,|Traum,|o lass mich|glück- lich sein!||
 z6 |] %28
w: |

